Papirus/48x48/apps/org.kde.merkuro.calendar.svg

<!-- Created with Inkscape (http://www.inkscape.org/) -->
<svg width="48" height="48" version="1.1" viewBox="0 0 48 48" xmlns="http://www.w3.org/2000/svg">
 <rect x="4" y="9" width="40" height="36" ry="4" style="opacity:.2"/>
 <rect x="4" y="12" width="40" height="32" ry="4" style="fill:#e97e10"/>
 <path d="m8 8c-2.2159978 0-4 1.7840022-4 4v4h40v-4c0-2.2159978-1.784002-4-4-4z" style="fill:#643106"/>
 <path d="m8 8c-2.2159978 0-4 1.7840022-4 4v1c0-2.215998 1.7840022-4 4-4h32c2.215998 0 4 1.784002 4 4v-1c0-2.2159978-1.784002-4-4-4z" style="fill:#ffffff;opacity:.1"/>
 <rect x="12" y="4" width="4" height="10" ry="2" style="fill:#351a03"/>
 <rect x="32" y="4" width="4" height="10" ry="2" style="fill:#351a03"/>
 <path d="m25.412522 33.048558 1.83215 2.000112c0.14168 0.1703 0.371398 0.1703 0.513072 0l3.920256-4.30867" stroke="#0097d7" style="fill:none;stroke-width:.75;stroke:#ffffff"/>
 <path d="m18.5 22c-0.831 0-1.5 0.669-1.5 1.5v3c0 0.831 0.669 1.5 1.5 1.5h3c0.831 0 1.5-0.669 1.5-1.5v-3c0-0.831-0.669-1.5-1.5-1.5zm16 0c-0.831 0-1.5 0.669-1.5 1.5v3c0 0.831 0.669 1.5 1.5 1.5h3c0.831 0 1.5-0.669 1.5-1.5v-3c0-0.831-0.669-1.5-1.5-1.5zm-24 8c-0.8309992 0-1.5 0.669-1.5 1.5v3c0 0.831 0.6690008 1.5 1.5 1.5h3c0.830999 0 1.5-0.669 1.5-1.5v-3c0-0.831-0.669001-1.5-1.5-1.5zm8 0c-0.831 0-1.5 0.669-1.5 1.5v3c0 0.831 0.669 1.5 1.5 1.5h3c0.831 0 1.5-0.669 1.5-1.5v-3c0-0.831-0.669-1.5-1.5-1.5z" style="fill:#ffffff"/>
 <path d="m26.5 22c-0.831 0-1.5 0.669-1.5 1.5v3c0 0.831 0.669 1.5 1.5 1.5h3c0.831 0 1.5-0.669 1.5-1.5v-3c0-0.831-0.669-1.5-1.5-1.5zm8 8c-0.831 0-1.5 0.669-1.5 1.5v3c0 0.831 0.669 1.5 1.5 1.5h3c0.831 0 1.5-0.669 1.5-1.5v-3c0-0.831-0.669-1.5-1.5-1.5z" style="fill:#ffffff;opacity:.6"/>
</svg>

<svg xmlns="http://www.w3.org/2000/svg" width="48" height="48" version="1.1">
 <rect style="opacity:0.2" width="40" height="32" x="4" y="13" ry="4"/>
 <rect style="fill:#e97e10" width="40" height="32" x="4" y="12" ry="4"/>
 <path style="fill:#643106" d="M 8 8 C 5.784 8 4 9.784 4 12 L 4 16 L 44 16 L 44 12 C 44 9.784 42.216 8 40 8 L 8 8 z"/>
 <path style="fill:#ffffff;opacity:0.1" d="M 8 8 C 5.784 8 4 9.784 4 12 L 4 13 C 4 10.784 5.784 9 8 9 L 40 9 C 42.216 9 44 10.784 44 13 L 44 12 C 44 9.784 42.216 8 40 8 L 8 8 z"/>
 <rect style="fill:#351a03" width="4" height="10" x="12" y="4" ry="2"/>
 <rect style="fill:#351a03" width="4" height="10" x="32" y="4" ry="2"/>
 <rect style="opacity:0.2" width="40" height="1" x="4" y="16"/>
 <rect style="fill:#ffffff" width="6" height="6" x="33" y="22" rx="1.5" ry="1.5"/>
 <rect style="fill:#ffffff" width="6" height="6" x="17" y="22" rx="1.5" ry="1.5"/>
 <rect style="fill:#ffffff" width="6" height="6" x="17" y="30" rx="1.5" ry="1.5"/>
 <rect style="fill:#ffffff" width="6" height="6" x="9" y="30" rx="1.5" ry="1.5"/>
 <rect style="fill:#f6cb9f" width="6" height="6" x="33" y="30" rx="1.5" ry="1.5"/>
 <rect style="fill:#f6cb9f" width="6" height="6" x="25" y="22" rx="1.5" ry="1.5"/>
 <path style="fill:none;stroke:#ffffff;stroke-width:1px;stroke-linecap:round;stroke-linejoin:round" d="M 25.5,33.5 27.5,35.5 31.5,31.5"/>
</svg>
